svg/relation_many_to_many.svg

<svg xmlns="http://www.w3.org/2000/svg" viewBox="0 0 24 24"><path d="M22 13v6h-1l-2-2h-8V9H5l-2 2H2V5h1l2 2h8v8h6l2-2Z"/></svg>

<?xml version="1.0" encoding="UTF-8"?><!DOCTYPE svg PUBLIC "-//W3C//DTD SVG 1.1//EN" "http://www.w3.org/Graphics/SVG/1.1/DTD/svg11.dtd"><svg xmlns="http://www.w3.org/2000/svg" xmlns:xlink="http://www.w3.org/1999/xlink" version="1.1" id="mdi-relation-many-to-many" width="24" height="24" viewBox="0 0 24 24"><path d="M22 13V19H21L19 17H11V9H5L3 11H2V5H3L5 7H13V15H19L21 13Z" /></svg>
